X: 15767
T: Good Man Noel
R: reel
M: 4/4
K: Gmajor
|:G,2 (3B,A,G, B,DDB,|DEGB AGAB|c2dc BdAG|EDGD B,A,A,D|
G,2 (3B,A,G, B,DDB,|DEGB AGAB|c2ec dBGE|DEDC B,G,G,2:|
|:GEDE G3A|BdeB d2ed|cdBc ABGE|DEGD B,A,A,2|
B,DDB, DEGA|BdeB d2ed|cdBc ABGE|DB,A,D B,G,G,2:|

